X:1
T:București, LMD
T:București, LMD
T:Anonymous, 1929
T:Public Domain Courtesy of the Cyber Hymnal™
C:Anonymous, 1929
Z:Public Domain
Z:Courtesy of the Cyber Hymnal™
%%score ( 1 2 ) ( 3 4 )
L:1/8
Q:1/4=105
M:4/4
K:A
V:1 treble 
V:2 treble 
V:3 bass 
V:4 bass 
V:1
 [Ec]2 [Ec]>[Ec] [Ec]2 [Ec]2 | [Ee]2 [CA]2 [Ec]4 | [EB]2 [EB]>[Ec] [Ed]2 [EG]2 | %3
 [EA]2 [EB]2 [Ec]4 | [Ec]2 [Ec]>[Ec] [Ec]2 [Ec]2 | [Ee]2 [CA]2 [Ec]4 | %6
 [EB]2 [EB]>[Ec] [Ed]2 [DG]2 | [DB]2 [CA]2 [CA]4 | [DF]2 [DF]>[EG] [FA]2 [DF]2 | %9
 [DF]2 [CE]2 [CE]4 | c2 c>B A2 G2 | F2 C2 F4 | [CE]2 [CE]>[CE] [CE]2 [EA]2 | [EG]2 [EA]2 [GB]4 | %14
 [Ec]2 [Ec]>[Ed] [Ee]2 [Fd]2 | [Ec]2 [DB]2 [CA]4 |] %16
V:2
 x8 | x8 | x8 | x8 | x8 | x8 | x8 | x8 | x8 | x8 | c2 c>B A2 G2 | F2 C2 F4 | x8 | x8 | x8 | x8 |] %16
V:3
 A,2 A,>A, A,2 A,2 | [A,C]2 A,2 A,4 | [E,G,]2 [E,G,]>[E,A,] [E,B,]2 [D,B,]2 | %3
 [C,A,]2 [B,,G,]2 [A,,A,]4 | A,2 A,>A, A,2 A,2 | [A,C]2 A,2 A,4 | %6
 [E,G,]2 [E,G,]>[E,A,] [E,B,]2 [E,B,]2 | [E,G,]2 [A,,A,]2 [A,,A,]4 | %8
 [D,A,]2 [D,A,]>[D,D] [D,D]2 [D,A,]2 | [A,,A,]2 [A,,A,]2 [A,,A,]4 | C2 C>B, A,2 G,2 | F,2 C,2 F,4 | %12
 [A,,A,]2 [A,,A,]>[A,,A,] [A,,A,]2 [A,,C]2 | [E,B,]2 [E,C]2 [E,E]4 | A,2 A,>[A,B,] [A,C]2 [D,A,]2 | %15
 [E,A,]2 [E,G,]2 [A,,A,]4 |] %16
V:4
 A,2 A,>A, A,2 A,2 | x2 A,2 A,4 | x8 | x8 | A,2 A,>A, A,2 A,2 | x2 A,2 A,4 | x8 | x8 | x8 | x8 | %10
 C2 C>B, A,2 G,2 | F,2 C,2 F,4 | x8 | x8 | A,2 A,3/2 x9/2 | x8 |] %16

